static/assets/img/icons/theme/design/mask.svg

<svg height="24" viewBox="0 0 24 24" width="24" xmlns="http://www.w3.org/2000/svg"><g fill="none" fill-rule="evenodd"><path d="m0 0h24v24h-24z" opacity="0"/><g fill="#000"><path d="m7.67514486 18.731359c2.00521854-1.3461989 3.32485514-3.6346701 3.32485514-6.231359 0-2.91132078-1.65880235-5.43520751-4.08281946-6.67807261 1.3820092-1.13831894 3.15258166-1.82192739 5.08281946-1.82192739 4.418278 0 8 3.581722 8 8s-3.581722 8-8 8c-1.5933247 0-3.07785733-.4657945-4.32485514-1.268641z" opacity=".3"/><path d="m6.39268296 17.7059641c-1.47679861-1.4514251-2.39268296-3.4717365-2.39268296-5.7059641 0-1.9319146.68479668-3.70388635 1.82489501-5.08642026 1.9014776 1.13415034 3.17510499 3.21154946 3.17510499 5.58642026 0 2.1298467-1.02437531 4.0204376-2.60731704 5.2059641z"/></g></g></svg>

<svg width="24px" height="24px" viewBox="0 0 24 24" version="1.1" xmlns="http://www.w3.org/2000/svg" xmlns:xlink="http://www.w3.org/1999/xlink">
    <title>Icon For Mask</title>
    <g stroke="none" stroke-width="1" fill="none" fill-rule="evenodd">
        <rect opacity="0" x="0" y="0" width="24" height="24"></rect>
        <path d="M7.67514486,18.731359 C9.6803634,17.3851601 11,15.0966889 11,12.5 C11,9.58867922 9.34119765,7.06479249 6.91718054,5.82192739 C8.29918974,4.68360845 10.0697622,4 12,4 C16.418278,4 20,7.581722 20,12 C20,16.418278 16.418278,20 12,20 C10.4066753,20 8.92214267,19.5342055 7.67514486,18.731359 Z" fill="#000000" opacity="0.3"></path>
        <path d="M6.39268296,17.7059641 C4.91588435,16.254539 4,14.2342276 4,12 C4,10.0680854 4.68479668,8.29611365 5.82489501,6.91357974 C7.72637261,8.04773008 9,10.1251292 9,12.5 C9,14.6298467 7.97562469,16.5204376 6.39268296,17.7059641 Z" fill="#000000"></path>
    </g>
</svg>
